white/wax.svg

<!-- Generated by IcoMoon.io -->
<svg version="1.1" xmlns="http://www.w3.org/2000/svg" width="32" height="32" viewBox="0 0 32 32">
<title>wax</title>
<path fill="#fff" d="M16 32c-8.837 0-16-7.163-16-16s7.163-16 16-16 16 7.163 16 16-7.163 16-16 16zM28 18.962l-7.484-6.462h-2.375l4.625 3.998-1.461 1.257-3.039-3.708h-2.010l-4.050 4.931 1.788-4.923h-1.624l-1.184 3.325-1.186-3.324h-2l-1.188 3.332-1.192-3.346h-1.62l1.773 4.911h2.112l1.115-3.13 1.124 3.155h2.080l-1.244 1.522h1.997l4.305-5.241 1.233 1.508h-1.619l-0.833 1.029h3.292l0.955 1.16h1.998l1.671-1.43 1.677 1.436zM25.655 15.99l2.249-1.902-2.251-0.002-1.113 0.948z"></path>
</svg>

<svg height="32" width="32" xmlns="http://www.w3.org/2000/svg"><path d="M16 32C7.163 32 0 24.837 0 16S7.163 0 16 0s16 7.163 16 16-7.163 16-16 16zm12-13.038L20.516 12.5h-2.375l4.625 3.998-1.461 1.257-3.039-3.708h-2.01l-3.652 4.445-.398.486 1.788-4.923H12.37l-1.184 3.325L10 14.056H8l-1.188 3.332-1.192-3.346H4l1.773 4.911h2.112L9 15.823l1.124 3.155h2.08L10.96 20.5h1.997l4.305-5.241 1.233 1.508h-1.619l-.833 1.029h3.292l.955 1.16h1.998l1.671-1.43 1.677 1.436zm-2.345-2.972l2.249-1.902-2.251-.002-1.113.948z" fill="#fff" fill-rule="evenodd"/></svg>
